paymentMethods/cartesBancaires.svg

<svg width="128" height="64" viewBox="0 0 128 64" fill="none" xmlns="http://www.w3.org/2000/svg">
<path d="M0 6C0 2.68629 2.68629 0 6 0H122C125.314 0 128 2.68629 128 6V58C128 61.3137 125.314 64 122 64H6C2.68629 64 0 61.3137 0 58V6Z" fill="url(#paint0_linear_5_11494)"/>
<path d="M102 22.284C102 21.2045 101.784 20.125 101.352 19.0454C100.92 17.9659 100.273 17.1022 99.625 16.4545C98.7614 15.5909 97.8977 14.9431 96.8182 14.7272C95.7386 14.2954 94.4432 14.2954 92.7159 14.2954H68.9659V22.284V30.2727H92.5C94.2273 30.2727 95.7386 30.0568 96.6023 29.8409C97.6818 29.409 98.5454 28.9772 99.4091 28.1136C100.273 27.25 100.705 26.3863 101.136 25.5227C101.784 24.4431 102 23.3636 102 22.284Z" fill="white"/>
<path d="M102 41.9319C102 40.8523 101.784 39.7728 101.352 38.6932C100.92 37.6137 100.273 36.7501 99.625 36.1023C98.7614 35.2387 97.8977 34.591 96.8182 34.3751C95.7386 33.9432 94.4432 33.9432 92.7159 33.9432H68.9659V41.9319V49.9205H92.5C94.2273 49.9205 95.7386 49.7046 96.6023 49.4887C97.6818 49.0569 98.5454 48.6251 99.4091 47.7614C100.273 46.8978 100.705 46.0341 101.136 45.1705C101.784 44.091 102 43.0114 102 41.9319Z" fill="white"/>
<path d="M65.7273 30.2727C64.8636 19.9091 57.5227 13 45.8636 13C33.5568 13 26 20.5568 26 32C26 43.875 33.9886 51 45.8636 51C57.5227 51 64.8636 44.3068 65.7273 33.7273H45.6477V30.0568H65.7273V30.2727Z" fill="white"/>
<defs>
<linearGradient id="paint0_linear_5_11494" x1="-9.87162e-07" y1="78.7908" x2="143.083" y2="21.957" gradientUnits="userSpaceOnUse">
<stop stop-color="#259A49"/>
<stop offset="0.49" stop-color="#1C97BE"/>
<stop offset="1" stop-color="#0D2453"/>
</linearGradient>
</defs>
</svg>

<svg xmlns="http://www.w3.org/2000/svg" width="128" height="64" fill="none"><path fill="url(#a)" d="M0 6a6 6 0 0 1 6-6h116a6 6 0 0 1 6 6v52a6 6 0 0 1-6 6H6a6 6 0 0 1-6-6V6Z"/><path fill="#fff" d="M102 22.284c0-1.08-.216-2.159-.648-3.239a7.762 7.762 0 0 0-1.727-2.59c-.864-.864-1.727-1.512-2.807-1.728-1.08-.432-2.375-.432-4.102-.432h-23.75v15.978H92.5c1.727 0 3.239-.216 4.102-.432 1.08-.432 1.943-.864 2.807-1.727.864-.864 1.296-1.728 1.727-2.591.648-1.08.864-2.16.864-3.239ZM102 41.932c0-1.08-.216-2.16-.648-3.239a7.763 7.763 0 0 0-1.727-2.59c-.864-.864-1.727-1.512-2.807-1.728-1.08-.432-2.375-.432-4.102-.432h-23.75V49.92H92.5c1.727 0 3.239-.215 4.102-.431 1.08-.432 1.943-.864 2.807-1.728.864-.863 1.296-1.727 1.727-2.59.648-1.08.864-2.16.864-3.24ZM65.727 30.273C64.864 19.909 57.523 13 45.864 13 33.557 13 26 20.557 26 32c0 11.875 7.989 19 19.864 19 11.659 0 19-6.693 19.863-17.273h-20.08v-3.67h20.08v.216Z"/><defs><linearGradient id="a" x1="0" x2="143.083" y1="78.791" y2="21.957" gradientUnits="userSpaceOnUse"><stop stop-color="#259A49"/><stop offset=".49" stop-color="#1C97BE"/><stop offset="1" stop-color="#0D2453"/></linearGradient></defs></svg>
